X:1
T:Shall We Gather at the River?
T:Shall We Gather at the River?
T:Robert Lowry
T:Robert Lowry, 1864
T:Public Domain Courtesy of the Cyber Hymnal™
T:Public Domain Courtesy of the Cyber Hymnal™
C:Robert Lowry
Z:Public Domain
Z:Courtesy of the Cyber Hymnal™
%%score ( 1 2 ) ( 3 4 )
L:1/8
Q:1/4=110
M:4/4
K:D
V:1 treble 
V:2 treble 
V:3 bass 
V:4 bass 
V:1
 [DF]2 [DF]2 [DF]>[DE] [DF]>[EG] | [FA]4 [DF]4 | [EG]2 [EG]2 [EG]>[FA] [EG]>[DF] | (E4 A4) | %4
w: 1.~Shall we ga- ther at the|ri- ver,|Where bright an- gel feet have|trod, *|
w: 2.~On the mar- gin of the|ri- ver,|Wash- ing up its sil- ver|spray, *|
w: 3.~Ere we reach the shin- ing|ri- ver,|Lay we eve- ry bur- den|down; *|
w: 4.~At the smil- ing of the|ri- ver,|Mir- ror of the Sav- ior’s|face, *|
w: 5.~Soon we’ll reach the shin- ing|ri- ver,|Soon our pil- grim- age will|cease; *|
 [DF]2 [DF]2 [DF]>[DE] [DF]>[EG] | [FA]4 [DF]2 [DF][EG] | [CE]2 ([CE][DF]) [EG]2 ([DF][CE]) | D8 || %8
w: With its crys- tal tide for-|ev- er Flow- ing|by the * throne of *|God?|
w: We will talk and wor- ship|ev- er, All the|hap- py * gold- en *|day.|
w: Grace our spir- its will de-|liv- er, And pro-|vide a * robe and *|crown.|
w: Saints, whom death will ne- ver|se- ver, Lift their|songs of * sav- ing *|grace.|
w: Soon our hap- py hearts will|qui- ver With the|mel- o- * dy of *|peace.|
"^Refrain" [GB]2 [GB]2 [Gd]>[Gc] [Gd]>[GB] | [FA]4 [DF]3 [DF] | %10
w: ||
w: ||
w: Yes, we’ll ga- ther at the|ri- ver, The|
w: ||
w: ||
 [EG]>[^DF] [EG]>[DF] [EG]>[DF] ([EG][CE]) | [DF]4 [FA]4 | [GB]>[GB] [GB]>[GB] | (d>c) [Gd]>[GB] | %14
w: ||||
w: ||||
w: beau- ti- ful, the beau- ti- ful *|ri- ver;|Ga- ther with the|saints * at the|
w: ||||
w: ||||
 [FA]4 [DF]2 [DF]2 | [CE]2 [CE]>[DF] [EG]2 ([DF][CE]) | D8 |] %17
w: |||
w: |||
w: ri- ver That|flows by the throne of *|God.|
w: |||
w: |||
V:2
 x8 | x8 | x8 | C8 | x8 | x8 | x8 | D8 || x8 | x8 | x8 | x8 | x4 | G2 x2 | x8 | x8 | D8 |] %17
V:3
 [D,A,]2 [D,A,]2 [D,A,]>[D,A,] [D,A,]>[D,A,] | [D,D]4 [D,A,]4 | %2
 [A,,A,]2 [A,,A,]2 [A,,A,]>[A,,A,] [A,,A,]>[A,,A,] | [A,,A,]8 | %4
 [D,A,]2 [D,A,]2 [D,A,]>[D,A,] [D,A,]>[D,A,] | [D,D]4 [D,A,]2 [D,A,][D,A,] | %6
 [A,,A,]2 [A,,A,]2 [A,,A,]2 (A,G,) | [D,F,]8 || [G,D]2 [G,D]2 [G,B,]>[G,^A,] [G,B,]>[G,D] | %9
 [D,D]4 [D,A,]3 [D,A,] | [A,,A,]>[A,,A,] [A,,A,]>[A,,A,] [A,,A,]>[A,,A,] [A,,A,]2 | %11
 [D,A,]4 [D,D]4 | [G,D]>[G,D] [G,D]>[G,D] | (B,>^A,) [G,B,]>[G,D] | [D,D]4 [D,A,]2 [D,A,]2 | %15
 [A,,A,]2 [A,,A,]>[A,,A,] [A,,A,]2 (A,G,) | [D,F,]8 |] %17
V:4
 x8 | x8 | x8 | x8 | x8 | x8 | x6 A,,2 | x8 || x8 | x8 | x8 | x8 | x4 | G,2 x2 | x8 | x6 A,,2 | %16
 x8 |] %17

